images/health-arrow.svg

<svg width="140" height="127" viewBox="0 0 140 127" fill="none" xmlns="http://www.w3.org/2000/svg">
<path d="M139.389 -7.79114e-05C142.255 19.0511 119.434 61.1563 96.5815 80.617C71.7273 101.752 54.0611 108.345 11.6238 111.979C13.5738 114.028 15.1693 115.562 16.6237 117.252C18.2402 119.044 19.7173 120.964 21.0385 122.992C21.4382 123.626 21.0868 125.291 20.5166 125.782C20.1044 126.01 19.6347 126.122 19.1506 126.107C18.6665 126.091 18.1834 125.949 17.7458 125.694C12.3006 121.26 6.92321 116.728 1.61361 112.099C1.18405 111.825 0.816929 111.451 0.544637 111.01C0.272345 110.568 0.103247 110.072 0.0522607 109.567C0.00127458 109.061 0.0699789 108.56 0.252288 108.109C0.434598 107.658 0.724922 107.27 1.09765 106.98C6.85115 100.708 12.5167 94.3431 18.4272 88.2012C19.811 86.7536 21.8945 86.0124 24.2131 84.7455C25.6276 90.8387 21.4241 92.6887 19.5262 95.7564C17.6282 98.8241 14.9451 101.83 12.0977 105.497C24.3061 106.435 36.3922 105.108 47.7901 101.578C88.6245 89.166 115.592 61.1215 131.689 21.0801C133.789 15.8511 135.276 10.3367 137.123 4.9893C137.652 3.60573 138.401 2.26362 139.389 -7.79114e-05Z" fill="#E2001A"/>
</svg>

<svg width="140" height="127" fill="none" xmlns="http://www.w3.org/2000/svg"><path d="M139.389 0c2.866 19.051-19.955 61.156-42.808 80.617-24.854 21.135-42.52 27.728-84.957 31.362 1.95 2.049 3.545 3.583 5 5.273a46.318 46.318 0 014.415 5.74c.4.634.048 2.299-.522 2.79-.413.228-.882.34-1.366.325a2.993 2.993 0 01-1.405-.413 627.362 627.362 0 01-16.132-13.595 3.43 3.43 0 01-1.562-2.532 3.07 3.07 0 01.2-1.458 2.71 2.71 0 01.846-1.129c5.753-6.272 11.419-12.637 17.33-18.779 1.383-1.447 3.466-2.189 5.785-3.455 1.415 6.093-2.789 7.943-4.687 11.01-1.898 3.068-4.58 6.074-7.428 9.741 12.208.938 24.294-.389 35.692-3.919 40.834-12.412 67.802-40.457 83.899-80.498 2.1-5.229 3.587-10.743 5.434-16.09.529-1.384 1.278-2.726 2.266-4.99z" fill="#E2001A"/></svg>
